X:99
T:40th Birthday Hornpipe
R:hornpipe
C:Fredrik Jakobsson, Sweden
Z:id:hn-hornpipe-99
M:C|
K:Gmix
BA|GEDE G2GB|AFAc BG~G2|Acfe dGBd|(3cBA BG AcBA|
GEDE G2GB|AFAc BG~G2|Acfe dGBd|G2GF G2:|
|:Bc|dgdB cfcA|BcAB GABG|AD~D2 c2Bc|dedB c2Bc|
dgdB cfcA|BcAB GABG|AD~D2 c2BA|G2GF G2:|

